X:14909
T:Scartaglen
M:2/4
L:1/8
K:D Major
AF A2|BG B2|c/B/A/B/ cd|ed B/c/d/B/|!
AF A2|BG B2|c/B/A/B/ cd|ed d2:|!
Ad f2|fe e2|ef ga|ba ag|!
f3/e/ fg|fe e2|ef g/e/c|ed d2:|!


